X:1
T:Title
%%score { ( 1 2 ) | ( 3 4 ) }
L:1/8
M:4/4
K:E
V:1 treble nm="Grand Piano"
V:2 treble 
V:3 bass 
V:4 bass 
V:1
 z4 z2[Q:1/4=100] z z/ G/ | B3 c B2 G2 | G3 F E2 z z/ F/ | [B,EG]2 [EGB]2 [EGB]2 [B,EG]2 | %4
[M:7/8] [^A,EG]2 [A,E]2 [B,DF]3 |[M:1/4] z z/ G/ |[M:4/4] B3 c B2 G2 | G3 F E2 G2 | F3 G F2 B2 | %9
[M:7/8] c3 [DB] [DB]3 |[M:1/4] [GB]2 |[M:4/4] [Ge]3 [Bd] [Ac]<[Ae]- [Ae]2 | [GB]2 G2 G2 G>A | %13
 B3 c B2 G2 |[M:7/8] E2 [B,EG]2 [B,DF]3 |[M:1/4] E->[EG] |[M:4/4] [GB]3 [Ac] [GB]2 G2 | %17
 G3 F E2 [GB]2 | [Ge]3 [Ac] [GB]2 [EG]2 |[M:3/4] [DF]3 E E2 |] %20
V:2
 z4 z2 E2 | x8 | z4 z2 [B,E]2 | x8 |[M:7/8] x7 |[M:1/4] [G,E]2 |[M:4/4] x8 | x8 | x8 |[M:7/8] x7 | %10
[M:1/4] x2 |[M:4/4] x8 | x8 | x8 |[M:7/8] x7 |[M:1/4] G,3/2 z/ |[M:4/4] x8 | x8 | x8 |[M:3/4] x6 |] %20
V:3
 z4 z2 [E,G,]2 | [E,G,E]3 [E,A,E] [E,G,E]2 [E,B,E]2 | [E,B,E]3 [F,A,D] G,2 G,>F, | %3
 E,2 E,2 E,2 E,2 |[M:7/8] z z/ F/ C,2 B,,3 |[M:1/4] E,2 | %6
[M:4/4] [E,G,E]3 [E,A,E] [E,G,E]2 [E,B,E]2 | [E,B,E]3 [E,A,D] [E,G,]2 [E,B,E]2 | %8
 [F,B,D]3 [F,B,E] [F,B,D]2 [F,B,D]2 |[M:7/8] [F,^A,E]3 [B,,B,] [B,,B,]3 |[M:1/4] [E,B,]2 | %11
[M:4/4] [E,B,]3 [E,E] [E,E]<[E,C]- [E,C]2 | [E,E]2 [E,B,E]2 [E,B,E]2 z z/ F,/ | %13
 [E,G,E]3 [E,A,E] [E,G,E]2 [E,B,E]2 |[M:7/8] G,2 E,2 B,,3 |[M:1/4] z z/ B,/ | %16
[M:4/4] [E,E]3 [E,E] [E,E]2 [E,B,E]2 | [E,B,E]3 [F,B,D] [G,B,]2 [E,B,]2 | %18
 [E,B,]3 [E,E] [E,E]2 [E,B,]2 |[M:3/4] [B,,A,]3 [E,G,] [E,G,]2 |] %20
V:4
 x8 | x8 | x8 | x8 |[M:7/8] C,2 z z z z2 |[M:1/4] x2 |[M:4/4] x8 | x8 | x8 |[M:7/8] x7 | %10
[M:1/4] x2 |[M:4/4] x8 | z4 z2 [E,E]2 | x8 |[M:7/8] x7 |[M:1/4] E,2 |[M:4/4] x8 | x8 | x8 | %19
[M:3/4] x6 |] %20

